src/icons/icons_set_stations/004-station-forfait.svg

<svg viewBox="0 0 200 200" xmlns="http://www.w3.org/2000/svg"><path d="m133.15 44.27h-27.57v-21.84a5.43 5.43 0 1 0 -10.87 0v21.84h-27.71a23.15 23.15 0 0 0 -23.19 23.13v91.54a23.14 23.14 0 0 0 23.19 23.06h66.13a23 23 0 0 0 23.09-23.11v-91.49a23 23 0 0 0 -23.09-23.13zm-17.62 31.73a7.39 7.39 0 0 1 6.52 3.92l15.76 29.81a2.72 2.72 0 0 1 -2.36 4h-14.6l-14.85-28.14 3-5.66a7.41 7.41 0 0 1 6.53-3.93zm-20.82-23.65v6.38a5.43 5.43 0 1 0 10.87 0v-6.38a9.15 9.15 0 0 1 3.78 7.46 9.23 9.23 0 1 1 -18.47 0 9.12 9.12 0 0 1 3.82-7.46zm-28.33 118.65h-4.89v-28.56h4.89zm-1.88-43.26a2.65 2.65 0 0 1 -2.29-1.23 2.61 2.61 0 0 1 -.07-2.58l21.45-40.58a7.38 7.38 0 0 1 13 0l21.44 40.57a2.56 2.56 0 0 1 -.07 2.57 2.64 2.64 0 0 1 -2.28 1.23zm23.6 43.26h-10.85v-28.56h10.86v28.56zm14.7 0h-3.8v-28.56h3.84zm14.47 0h-3.62v-28.56h3.62zm21.51 0h-10.64v-28.56h10.64zm0 0"/></svg>

<svg id="Icons" xmlns="http://www.w3.org/2000/svg" xmlns:xlink="http://www.w3.org/1999/xlink" viewBox="0 0 200 200">
    <title>forfait</title>
    <g>
        <path d="M133.15,44.27H105.58V22.43a5.43,5.43,0,1,0-10.87,0V44.27H67A23.15,23.15,0,0,0,43.81,67.4v91.54A23.14,23.14,0,0,0,67,182h66.13a23,23,0,0,0,23.09-23.11V67.4a23,23,0,0,0-23.09-23.13ZM115.53,76a7.39,7.39,0,0,1,6.52,3.92l15.76,29.81a2.72,2.72,0,0,1-2.36,4h-14.6l0,0L106,85.59l3-5.66A7.41,7.41,0,0,1,115.53,76ZM94.71,52.35v6.38a5.43,5.43,0,1,0,10.87,0V52.35a9.15,9.15,0,0,1,3.78,7.46,9.23,9.23,0,1,1-18.47,0,9.12,9.12,0,0,1,3.82-7.46ZM66.38,171H61.49V142.44h4.89ZM64.5,127.74a2.65,2.65,0,0,1-2.29-1.23,2.61,2.61,0,0,1-.07-2.58L83.59,83.35a7.38,7.38,0,0,1,13,0l21.44,40.57a2.56,2.56,0,0,1-.07,2.57,2.64,2.64,0,0,1-2.28,1.23ZM88.1,171H77.25V142.44H88.11V171Zm14.7,0H99V142.44h3.84Zm14.47,0h-3.62V142.44h3.62Zm21.51,0H128.14V142.44h10.64Zm0,0" />
    </g>
</svg>
